!!!SOCIAL_FUNCTION:	songs of the dragging-feet dance
!!!PDT:	1922
!!!OTL: No_44_Dragging-Feet_Dance_(b).krn
!!!REG: Southwest
!!!LANG: Non-Tone
!!!LING_GROUP: Uto-Aztecan
**kern	**kern
*staff2	*staff1
=	=
*clefF4	*clefF4
*k[b-e-a-d-g-]	*k[b-e-a-d-g-]
*M2/4	*M2/4
4GG-/	16d-\LK
.	8.d-\J
=1	=1
4GG-/	4f\
4GG-/	8e-\L
.	16f\L
.	16e-\JJ
=2||	=2||
*M3/4	*M3/4
4GG-/	4d-\
4GG-/	8.A-\L
.	16A-\Jk
4GG-/	8.A-\L
.	16d-\Jk
=3||	=3||
*M2/4	*M2/4
2r	4d-\
.	8A-\L
.	8A-\J
=4||	=4||
*M3/4	*M3/4
2.r	2.A-\
=5||	=5||
*M2/4	*M2/4
2r	4A-\
.	8.G-\L
.	16A-\Jk
=6||	=6||
*M3/4	*M3/4
2.r	2A-\
.	4G-\
=7||	=7||
*M2/4	*M2/4
2r	8A-\L
.	8A-\J
.	8.A-\L
.	16A-\Jk
=8||	=8||
*M3/4	*M3/4
2.r	4..A-\
.	16A-\
.	8.A-\L
.	16d-\Jk
=9	=9
2.r	4d-\
.	16A-\LK
.	8.A-\J
.	8A-\L
.	8G-\J
=10||	=10||
*M2/4	*M2/4
2r	[2A-\
=11	=11
*M1/4	*M1/4
4r	4A-\]
==:|!	==:|!
*-	*-
